src/Pure/16/symbolic/actions/document-save-as-symbolic.svg

<?xml version="1.0" encoding="UTF-8" standalone="no"?>
<svg
   width="16"
   height="16"
   version="1.1"
   id="svg3"
   sodipodi:docname="document-save-as-symbolic.svg"
   inkscape:version="1.4.2 (ebf0e940d0, 2025-05-08)"
   xmlns:inkscape="http://www.inkscape.org/namespaces/inkscape"
   xmlns:sodipodi="http://sodipodi.sourceforge.net/DTD/sodipodi-0.dtd"
   xmlns="http://www.w3.org/2000/svg"
   xmlns:svg="http://www.w3.org/2000/svg">
  <defs
      id="defs3">
      <style
          id="current-color-scheme"
          type="text/css">
          .ColorScheme-Text { color:#363636; }
      </style>
  </defs>
  <sodipodi:namedview
     id="namedview3"
     pagecolor="#ffffff"
     bordercolor="#000000"
     borderopacity="0.25"
     inkscape:showpageshadow="2"
     inkscape:pageopacity="0.0"
     inkscape:pagecheckerboard="0"
     inkscape:deskcolor="#d1d1d1"
     inkscape:zoom="49.6875"
     inkscape:cx="8"
     inkscape:cy="8"
     inkscape:window-width="1920"
     inkscape:window-height="1010"
     inkscape:window-x="0"
     inkscape:window-y="0"
     inkscape:window-maximized="1"
     inkscape:current-layer="svg3" />
  <path
     id="path1"
     style="fill:currentColor;fill-opacity:1"
     class="ColorScheme-Text"
     d="M 1 1 C 0.446 1 0 1.446 0 2 L 0 4 C 0 4.554 0.446 5 1 5 L 1 13 C 1 14.108 1.892 15 3 15 L 12 15 C 13.108 15 14 14.108 14 13 L 14 5 C 14.554 5 15 4.554 15 4 L 15 2 C 15 1.446 14.554 1 14 1 L 1 1 z M 1 2 L 14 2 L 14 4 L 1 4 L 1 2 z M 2 5 L 13 5 L 13 13 C 13 13.554 12.554 14 12 14 L 3 14 C 2.446 14 2 13.554 2 13 L 2 5 z M 7 6 L 7 10.085938 L 5.2011719 8.2871094 L 4.4941406 8.9941406 L 6.7929688 11.292969 L 7.5 12 L 8.2070312 11.292969 L 10.505859 8.9941406 L 9.7988281 8.2871094 L 8 10.085938 L 8 6 L 7 6 z " />
</svg>

<svg width="16" height="16" version="1.1" xmlns="http://www.w3.org/2000/svg">
 <path d="m1 5v8c0 1.108 0.892 2 2 2h9c1.108 0 2-0.892 2-2v-8h-1v8c0 0.554-0.446 1-1 1h-9c-0.554 0-1-0.446-1-1v-8h-1z" fill="#333333" stroke-linecap="round" stroke-linejoin="round" stroke-opacity=".25" stroke-width="1.0016" style="paint-order:markers stroke fill"/>
 <rect transform="rotate(45)" x="9.5368" y="2.182" width="4.2518" height="1" rx="0" ry="0" fill="#333333" stroke-linecap="round" stroke-linejoin="round" stroke-opacity=".25" stroke-width="1.0016" style="paint-order:markers stroke fill"/>
 <rect transform="matrix(-.70711 .70711 .70711 .70711 0 0)" x="-1.0698" y="12.789" width="4.2518" height="1" rx="0" ry="0" fill="#333333" stroke-linecap="round" stroke-linejoin="round" stroke-opacity=".25" stroke-width="1.0016" style="paint-order:markers stroke fill"/>
 <rect x="7" y="6" width="1" height="5" rx="0" ry="0" fill="#333333" stroke-linecap="round" stroke-linejoin="round" stroke-opacity=".25" stroke-width=".79181" style="paint-order:markers stroke fill"/>
 <path d="m1 1c-0.554 0-1 0.446-1 1v2c0 0.554 0.446 1 1 1h13c0.554 0 1-0.446 1-1v-2c0-0.554-0.446-1-1-1h-13zm0 1h13v2h-13v-2z" fill="#333333" stroke-linecap="round" stroke-linejoin="round" stroke-opacity=".25" stroke-width="1.0016" style="paint-order:markers stroke fill"/>
</svg>
